images/icons.svg

<svg aria-hidden="true" style="position: absolute; width: 0; height: 0; overflow: hidden;" version="1.1" xmlns="http://www.w3.org/2000/svg" xmlns:xlink="http://www.w3.org/1999/xlink">
<defs>
<symbol id="icon-instagram-2" viewBox="0 0 32 32">
<path fill="#f4f4fd" style="fill: var(--color1, #f4f4fd)" d="M31.969 9.408c-0.075-1.7-0.35-2.869-0.744-3.882-0.406-1.075-1.031-2.038-1.85-2.838-0.8-0.813-1.769-1.444-2.832-1.844-1.019-0.394-2.182-0.669-3.882-0.744-1.713-0.081-2.257-0.1-6.601-0.1s-4.888 0.019-6.595 0.094c-1.7 0.075-2.869 0.35-3.882 0.744-1.075 0.406-2.038 1.031-2.838 1.85-0.813 0.8-1.444 1.769-1.844 2.832-0.394 1.019-0.669 2.182-0.744 3.882-0.081 1.713-0.1 2.257-0.1 6.601s0.019 4.888 0.094 6.595c0.075 1.7 0.35 2.869 0.744 3.882 0.406 1.075 1.038 2.038 1.85 2.838 0.8 0.813 1.769 1.444 2.832 1.844 1.019 0.394 2.182 0.669 3.882 0.744 1.706 0.075 2.25 0.094 6.595 0.094s4.888-0.019 6.595-0.094c1.7-0.075 2.869-0.35 3.882-0.744 2.151-0.831 3.851-2.532 4.682-4.682 0.394-1.019 0.669-2.182 0.744-3.882 0.075-1.707 0.094-2.25 0.094-6.595s-0.006-4.888-0.081-6.595zM29.087 22.473c-0.069 1.563-0.331 2.407-0.55 2.969-0.538 1.394-1.644 2.5-3.038 3.038-0.563 0.219-1.413 0.481-2.969 0.55-1.688 0.075-2.194 0.094-6.464 0.094s-4.782-0.019-6.464-0.094c-1.563-0.069-2.407-0.331-2.969-0.55-0.694-0.256-1.325-0.663-1.838-1.194-0.531-0.519-0.938-1.144-1.194-1.838-0.219-0.563-0.481-1.413-0.55-2.969-0.075-1.688-0.094-2.194-0.094-6.464s0.019-4.782 0.094-6.464c0.069-1.563 0.331-2.407 0.55-2.969 0.256-0.694 0.663-1.325 1.2-1.838 0.519-0.531 1.144-0.938 1.838-1.194 0.563-0.219 1.413-0.481 2.969-0.55 1.688-0.075 2.194-0.094 6.464-0.094 4.276 0 4.782 0.019 6.464 0.094 1.563 0.069 2.407 0.331 2.969 0.55 0.694 0.256 1.325 0.662 1.838 1.194 0.531 0.519 0.938 1.144 1.194 1.838 0.219 0.563 0.481 1.413 0.55 2.969 0.075 1.688 0.094 2.194 0.094 6.464s-0.019 4.77-0.094 6.458z"></path>
<path fill="#f4f4fd" style="fill: var(--color1, #f4f4fd)" d="M16.059 7.783c-4.538 0-8.22 3.682-8.22 8.22s3.682 8.22 8.22 8.22c4.538 0 8.22-3.682 8.22-8.22s-3.682-8.22-8.22-8.22zM16.059 21.335c-2.944 0-5.332-2.388-5.332-5.332s2.388-5.332 5.332-5.332c2.944 0 5.332 2.388 5.332 5.332s-2.388 5.332-5.332 5.332z"></path>
<path fill="#f4f4fd" style="fill: var(--color1, #f4f4fd)" d="M26.524 7.458c0 1.060-0.859 1.919-1.919 1.919s-1.919-0.859-1.919-1.919c0-1.060 0.859-1.919 1.919-1.919s1.919 0.859 1.919 1.919z"></path>
</symbol>
<symbol id="icon-twitter-1" viewBox="0 0 32 32">
<path fill="#f4f4fd" style="fill: var(--color1, #f4f4fd)" d="M32 6.078c-1.19 0.522-2.458 0.868-3.78 1.036 1.36-0.812 2.398-2.088 2.886-3.626-1.268 0.756-2.668 1.29-4.16 1.588-1.204-1.282-2.92-2.076-4.792-2.076-3.632 0-6.556 2.948-6.556 6.562 0 0.52 0.044 1.020 0.152 1.496-5.454-0.266-10.28-2.88-13.522-6.862-0.566 0.982-0.898 2.106-0.898 3.316 0 2.272 1.17 4.286 2.914 5.452-1.054-0.020-2.088-0.326-2.964-0.808 0 0.020 0 0.046 0 0.072 0 3.188 2.274 5.836 5.256 6.446-0.534 0.146-1.116 0.216-1.72 0.216-0.42 0-0.844-0.024-1.242-0.112 0.85 2.598 3.262 4.508 6.13 4.57-2.232 1.746-5.066 2.798-8.134 2.798-0.538 0-1.054-0.024-1.57-0.090 2.906 1.874 6.35 2.944 10.064 2.944 12.072 0 18.672-10 18.672-18.668 0-0.29-0.010-0.57-0.024-0.848 1.302-0.924 2.396-2.078 3.288-3.406z"></path>
</symbol>
<symbol id="icon-facebook-1" viewBox="0 0 32 32">
<path fill="#f4f4fd" style="fill: var(--color1, #f4f4fd)" d="M21.329 5.313h2.921v-5.088c-0.504-0.069-2.237-0.225-4.256-0.225-4.212 0-7.097 2.649-7.097 7.519v4.481h-4.648v5.688h4.648v14.312h5.699v-14.311h4.46l0.708-5.688h-5.169v-3.919c0.001-1.644 0.444-2.769 2.735-2.769z"></path>
</symbol>
<symbol id="icon-linkedin-1" viewBox="0 0 32 32">
<path fill="#f4f4fd" style="fill: var(--color1, #f4f4fd)" d="M31.992 32v-0.001h0.008v-11.736c0-5.741-1.236-10.164-7.948-10.164-3.227 0-5.392 1.771-6.276 3.449h-0.093v-2.913h-6.364v21.364h6.627v-10.579c0-2.785 0.528-5.479 3.977-5.479 3.399 0 3.449 3.179 3.449 5.657v10.401h6.62z"></path>
<path fill="#f4f4fd" style="fill: var(--color1, #f4f4fd)" d="M0.528 10.636h6.635v21.364h-6.635v-21.364z"></path>
<path fill="#f4f4fd" style="fill: var(--color1, #f4f4fd)" d="M3.843-0c-2.121 0-3.843 1.721-3.843 3.843s1.721 3.879 3.843 3.879c2.121 0 3.843-1.757 3.843-3.879-0.001-2.121-1.723-3.843-3.843-3.843v0z"></path>
</symbol>
<symbol id="icon-css3" viewBox="0 0 32 32">
<path d="M4.762 1.516l-1.074 5.373h21.867l-0.684 3.47h-21.881l-1.059 5.372h21.865l-1.219 6.127-8.813 2.919-7.638-2.919 0.523-2.658h-5.372l-1.278 6.448 12.632 4.834 14.563-4.834 4.805-24.133z"></path>
</symbol>
<symbol id="icon-close-black-18dp-2-1" viewBox="0 0 32 32">
<path d="M32 3.223l-3.223-3.223-12.777 12.777-12.777-12.777-3.223 3.223 12.777 12.777-12.777 12.777 3.223 3.223 12.777-12.777 12.777 12.777 3.223-3.223-12.777-12.777 12.777-12.777z"></path>
</symbol>
<symbol id="icon-Vector-1" viewBox="0 0 32 32">
<path d="M28 4h-24c-1.65 0-2.985 1.35-2.985 3l-0.015 18c0 1.65 1.35 3 3 3h24c1.65 0 3-1.35 3-3v-18c0-1.65-1.35-3-3-3zM27.4 10.375l-10.605 6.63c-0.48 0.3-1.11 0.3-1.59 0l-10.605-6.63c-0.375-0.24-0.6-0.645-0.6-1.080 0-1.005 1.095-1.605 1.95-1.080l10.050 6.285 10.050-6.285c0.855-0.525 1.95 0.075 1.95 1.080 0 0.435-0.225 0.84-0.6 1.080z"></path>
</symbol>
<symbol id="icon-Vector-2" viewBox="0 0 32 32">
<path fill="#f4f4fd" style="fill: var(--color1, #f4f4fd)" d="M27.026 4.016c0.553-0.529 1.289-0.822 2.052-0.816s1.495 0.31 2.040 0.847c0.545 0.538 0.861 1.267 0.881 2.034s-0.257 1.513-0.773 2.078l-15.663 19.694c-0.269 0.292-0.594 0.526-0.956 0.688s-0.752 0.25-1.147 0.257c-0.396 0.007-0.789-0.066-1.156-0.214s-0.701-0.371-0.98-0.652l-10.387-10.443c-0.289-0.271-0.521-0.598-0.682-0.961s-0.247-0.755-0.254-1.152 0.066-0.792 0.214-1.161c0.148-0.369 0.368-0.703 0.648-0.984s0.613-0.503 0.979-0.652 0.759-0.222 1.155-0.215c0.395 0.007 0.785 0.094 1.146 0.256s0.686 0.395 0.956 0.686l8.22 8.26 13.633-17.464c0.025-0.030 0.051-0.059 0.078-0.087h-0.004z"></path>
</symbol>
<symbol id="icon-Vector-3" viewBox="0 0 32 32">
<path d="M16 16c4.42 0 8-3.58 8-8s-3.58-8-8-8c-4.42 0-8 3.58-8 8s3.58 8 8 8zM16 20c-5.34 0-16 2.68-16 8v2c0 1.1 0.9 2 2 2h28c1.1 0 2-0.9 2-2v-2c0-5.32-10.66-8-16-8z"></path>
</symbol>
<symbol id="icon-Vector" viewBox="0 0 32 32">
<path d="M28.865 21.822l-4.525-0.517c-1.087-0.125-2.155 0.249-2.921 1.015l-3.278 3.278c-5.041-2.565-9.174-6.68-11.739-11.739l3.296-3.296c0.766-0.766 1.14-1.835 1.015-2.921l-0.517-4.489c-0.214-1.799-1.728-3.153-3.545-3.153h-3.082c-2.013 0-3.687 1.675-3.563 3.687 0.944 15.213 13.111 27.362 28.306 28.306 2.013 0.125 3.687-1.55 3.687-3.563v-3.082c0.018-1.799-1.336-3.313-3.135-3.527z"></path>
</symbol>
</defs>
</svg>

<svg xmlns="http://www.w3.org/2000/svg" aria-hidden="true" style="position:absolute;width:0;height:0;overflow:hidden">
  <defs>
    <symbol id="icon-instagram-2" viewBox="0 0 32 32">
      <path fill="#f4f4fd" d="M31.969 9.408c-.075-1.7-.35-2.869-.744-3.882a7.803 7.803 0 0 0-1.85-2.838A7.867 7.867 0 0 0 26.543.844C25.524.45 24.361.175 22.661.1 20.948.019 20.404 0 16.06 0s-4.888.019-6.595.094c-1.7.075-2.869.35-3.882.744a7.803 7.803 0 0 0-2.838 1.85A7.867 7.867 0 0 0 .901 5.52C.507 6.539.232 7.702.157 9.402c-.081 1.713-.1 2.257-.1 6.601s.019 4.888.094 6.595c.075 1.7.35 2.869.744 3.882a7.895 7.895 0 0 0 1.85 2.838 7.867 7.867 0 0 0 2.832 1.844c1.019.394 2.182.669 3.882.744 1.706.075 2.25.094 6.595.094s4.888-.019 6.595-.094c1.7-.075 2.869-.35 3.882-.744a8.181 8.181 0 0 0 4.682-4.682c.394-1.019.669-2.182.744-3.882.075-1.707.094-2.25.094-6.595s-.006-4.888-.081-6.595zm-2.882 13.065c-.069 1.563-.331 2.407-.55 2.969a5.31 5.31 0 0 1-3.038 3.038c-.563.219-1.413.481-2.969.55-1.688.075-2.194.094-6.464.094s-4.782-.019-6.464-.094c-1.563-.069-2.407-.331-2.969-.55a4.926 4.926 0 0 1-1.838-1.194 4.974 4.974 0 0 1-1.194-1.838c-.219-.563-.481-1.413-.55-2.969-.075-1.688-.094-2.194-.094-6.464s.019-4.782.094-6.464c.069-1.563.331-2.407.55-2.969a4.868 4.868 0 0 1 1.2-1.838A4.974 4.974 0 0 1 6.639 3.55c.563-.219 1.413-.481 2.969-.55 1.688-.075 2.194-.094 6.464-.094 4.276 0 4.782.019 6.464.094 1.563.069 2.407.331 2.969.55a4.914 4.914 0 0 1 1.838 1.194 4.974 4.974 0 0 1 1.194 1.838c.219.563.481 1.413.55 2.969.075 1.688.094 2.194.094 6.464s-.019 4.77-.094 6.458z" style="fill:var(--color1, #f4f4fd)"/>
      <path fill="#f4f4fd" d="M16.059 7.783c-4.538 0-8.22 3.682-8.22 8.22s3.682 8.22 8.22 8.22 8.22-3.682 8.22-8.22-3.682-8.22-8.22-8.22zm0 13.552a5.333 5.333 0 0 1 0-10.664 5.333 5.333 0 0 1 0 10.664zM26.524 7.458a1.919 1.919 0 1 1-3.838 0 1.919 1.919 0 0 1 3.838 0z" style="fill:var(--color1, #f4f4fd)"/>
    </symbol>
    <symbol id="icon-twitter-1" viewBox="0 0 32 32">
      <path fill="#f4f4fd" d="M32 6.078c-1.19.522-2.458.868-3.78 1.036a6.523 6.523 0 0 0 2.886-3.626 13.11 13.11 0 0 1-4.16 1.588A6.574 6.574 0 0 0 22.154 3c-3.632 0-6.556 2.948-6.556 6.562 0 .52.044 1.02.152 1.496-5.454-.266-10.28-2.88-13.522-6.862a6.605 6.605 0 0 0-.898 3.316 6.57 6.57 0 0 0 2.914 5.452 6.479 6.479 0 0 1-2.964-.808v.072c0 3.188 2.274 5.836 5.256 6.446a6.548 6.548 0 0 1-1.72.216 5.8 5.8 0 0 1-1.242-.112c.85 2.598 3.262 4.508 6.13 4.57a13.182 13.182 0 0 1-8.134 2.798c-.538 0-1.054-.024-1.57-.09A18.469 18.469 0 0 0 10.064 29c12.072 0 18.672-10 18.672-18.668 0-.29-.01-.57-.024-.848A13.087 13.087 0 0 0 32 6.078z" style="fill:var(--color1, #f4f4fd)"/>
    </symbol>
    <symbol id="icon-facebook-1" viewBox="0 0 32 32">
      <path fill="#f4f4fd" d="M21.329 5.313h2.921V.225C23.746.156 22.013 0 19.994 0c-4.212 0-7.097 2.649-7.097 7.519V12H8.249v5.688h4.648V32h5.699V17.689h4.46l.708-5.688h-5.169V8.082c.001-1.644.444-2.769 2.735-2.769z" style="fill:var(--color1, #f4f4fd)"/>
    </symbol>
    <symbol id="icon-linkedin-1" viewBox="0 0 32 32">
      <path fill="#f4f4fd" d="M31.992 32v-.001H32V20.263c0-5.741-1.236-10.164-7.948-10.164-3.227 0-5.392 1.771-6.276 3.449h-.093v-2.913h-6.364v21.364h6.627V21.42c0-2.785.528-5.479 3.977-5.479 3.399 0 3.449 3.179 3.449 5.657v10.401h6.62zM.528 10.636h6.635V32H.528V10.636zM3.843 0C1.722 0 0 1.721 0 3.843s1.721 3.879 3.843 3.879c2.121 0 3.843-1.757 3.843-3.879A3.846 3.846 0 0 0 3.843 0z" style="fill:var(--color1, #f4f4fd)"/>
    </symbol>
    <symbol id="icon-css3" viewBox="0 0 32 32">
      <path d="M4.762 1.516 3.688 6.889h21.867l-.684 3.47H2.99l-1.059 5.372h21.865l-1.219 6.127-8.813 2.919-7.638-2.919.523-2.658H1.277l-1.278 6.448 12.632 4.834 14.563-4.834 4.805-24.133z"/>
    </symbol>
    <symbol id="icon-close-black-18dp-2-1" viewBox="0 0 32 32">
      <path d="M32 3.223 28.777 0 16 12.777 3.223 0 0 3.223 12.777 16 0 28.777 3.223 32 16 19.223 28.777 32 32 28.777 19.223 16 32 3.223z"/>
    </symbol>
    <symbol id="icon-Vector-1" viewBox="0 0 32 32">
      <path d="M28 4H4a2.996 2.996 0 0 0-2.985 3L1 25c0 1.65 1.35 3 3 3h24c1.65 0 3-1.35 3-3V7c0-1.65-1.35-3-3-3zm-.6 6.375-10.605 6.63c-.48.3-1.11.3-1.59 0L4.6 10.375c-.375-.24-.6-.645-.6-1.08C4 8.29 5.095 7.69 5.95 8.215L16 14.5l10.05-6.285c.855-.525 1.95.075 1.95 1.08 0 .435-.225.84-.6 1.08z"/>
    </symbol>
    <symbol id="icon-Vector-2" viewBox="0 0 32 32">
      <path fill="#f4f4fd" d="M27.026 4.016a2.936 2.936 0 0 1 4.092.031 2.967 2.967 0 0 1 .108 4.112L15.563 27.853a2.923 2.923 0 0 1-2.103.945 2.926 2.926 0 0 1-2.136-.866L.937 17.489a2.966 2.966 0 0 1-.722-3.274 2.947 2.947 0 0 1 2.782-1.851 2.926 2.926 0 0 1 2.102.942l8.22 8.26L26.952 4.102c.025-.03.051-.059.078-.087h-.004z" style="fill:var(--color1, #f4f4fd)"/>
    </symbol>
    <symbol id="icon-Vector-3" viewBox="0 0 32 32">
      <path d="M16 16c4.42 0 8-3.58 8-8s-3.58-8-8-8-8 3.58-8 8 3.58 8 8 8zm0 4c-5.34 0-16 2.68-16 8v2c0 1.1.9 2 2 2h28c1.1 0 2-.9 2-2v-2c0-5.32-10.66-8-16-8z"/>
    </symbol>
    <symbol id="icon-Vector" viewBox="0 0 32 32">
      <path d="m28.865 21.822-4.525-.517a3.543 3.543 0 0 0-2.921 1.015l-3.278 3.278A26.8 26.8 0 0 1 6.402 13.859l3.296-3.296a3.545 3.545 0 0 0 1.015-2.921l-.517-4.489A3.566 3.566 0 0 0 6.651 0H3.569C1.556 0-.118 1.675.006 3.687.95 18.9 13.117 31.049 28.312 31.993c2.013.125 3.687-1.55 3.687-3.563v-3.082c.018-1.799-1.336-3.313-3.135-3.527z"/>
    </symbol>
  </defs>
</svg>
